assets/svg/imgur.svg

<svg width="50" height="50" viewBox="0 0 50 50" fill="none" xmlns="http://www.w3.org/2000/svg">
<path d="M38.8889 50H11.1111C4.975 50 0 45.025 0 38.8889V11.1111C0 4.975 4.975 0 11.1111 0H38.8889C45.025 0 50 4.975 50 11.1111V38.8889C50 45.025 45.025 50 38.8889 50Z" fill="#4CAF50"/>
<path d="M38.75 36.7917L25.5417 50H11.1111C4.97222 50 0 45.0278 0 38.8889V24.4583L13.2083 11.25L19.1111 19.1111L7.31945 30.8889L19.1111 42.6806L30.8889 30.8889L38.75 36.7917Z" fill="#1A237E"/>
<path d="M18.9556 43.5167C18.2889 43.5167 17.6208 43.3014 17.0639 42.8625C15.6861 41.7806 13.65 40.0972 11.7764 38.2236C9.89445 36.3417 8.21528 34.3083 7.13611 32.9333C6.17778 31.7139 6.28334 29.9639 7.38611 28.8639L17.1431 19.1069L13.0583 15.0222C12.3333 14.2986 12.075 13.2417 12.3861 12.2667C12.7 11.2819 13.5292 10.5625 14.5528 10.3875C21.2278 9.25695 28.9208 8.76389 38.0597 8.85417C39.7417 8.87222 41.1264 10.2556 41.1444 11.9389C41.2431 21.0889 40.7403 28.7778 39.6111 35.4458C39.4375 36.4681 38.7181 37.2986 37.7347 37.6125C36.7583 37.9278 35.7028 37.6681 34.9764 36.9417L30.8917 32.8569L21.1333 42.6153C20.5361 43.2125 19.7472 43.5167 18.9556 43.5167ZM13.7403 36.2597C15.5167 38.0347 17.4611 39.6431 18.7792 40.6792C18.8958 40.7694 19.0625 40.7569 19.1708 40.65L30.8917 28.9278L36.9403 34.9764C37.975 28.4778 38.4639 20.95 38.3667 11.9694C38.3653 11.7889 38.2111 11.6347 38.0306 11.6333C29.0472 11.5403 21.5264 12.0236 15.0167 13.1278L21.0708 19.1083L9.34861 30.8292C9.24167 30.9361 9.22917 31.1028 9.31945 31.2181C10.1653 32.2958 11.8625 34.3819 13.7403 36.2597Z" fill="white"/>
<path d="M5.55556 28.4722C5.12639 28.4722 4.76528 28.1917 4.67778 27.7903C4.42778 26.6667 3.81528 26.0444 2.80834 25.8903C2.3875 25.8111 2.09861 25.4667 2.08334 25.0472C2.06806 24.6139 2.3375 24.2389 2.7375 24.1347C3.74028 23.8389 4.40278 23.175 4.6875 22.1667C4.84445 21.7542 5.17639 21.5278 5.55556 21.5278C5.93473 21.5278 6.26667 21.7542 6.40278 22.1028C6.70834 23.1736 7.37084 23.8375 8.39306 24.1389C8.77361 24.2375 9.04306 24.6139 9.02778 25.0458C9.0125 25.4667 8.72361 25.8111 8.32639 25.8847C7.29584 26.0431 6.68473 26.6653 6.43473 27.7917C6.34584 28.1917 5.98473 28.4722 5.55556 28.4722Z" fill="#3F51B5"/>
<path d="M8.19722 24.8042C7 24.4528 6.11944 23.6431 5.75555 22.3528C5.6875 22.1778 5.425 22.1778 5.35694 22.3528C4.99305 23.6431 4.1125 24.4514 2.91527 24.8042C2.73889 24.8514 2.72777 25.1681 2.91527 25.2028C4.13611 25.3903 5.02778 26.1639 5.35694 27.6417C5.39583 27.8222 5.71666 27.8222 5.75555 27.6417C6.08472 26.1639 6.97639 25.3903 8.19722 25.2028C8.38472 25.1681 8.37361 24.8514 8.19722 24.8042Z" fill="white"/>
<path d="M10.4167 22.9167C10.0125 22.9167 9.67222 22.6514 9.58889 22.2694C9.41667 21.4931 9.01667 21.0833 8.33055 20.9764C7.93194 20.9042 7.65555 20.5792 7.64028 20.1833C7.62361 19.7764 7.87778 19.4222 8.25694 19.3208C8.94583 19.1181 9.40278 18.6597 9.59861 17.9653C9.74861 17.5722 10.0611 17.3597 10.4167 17.3597C10.7722 17.3597 11.0847 17.5708 11.2125 17.9C11.4306 18.6597 11.8875 19.1181 12.5931 19.325C12.9556 19.4208 13.2097 19.775 13.1931 20.1819C13.1778 20.5778 12.9014 20.9042 12.5222 20.9722C11.8167 21.0806 11.4167 21.4917 11.2444 22.2694C11.1611 22.6514 10.8208 22.9167 10.4167 22.9167Z" fill="#3F51B5"/>
<path d="M12.3972 19.9917C11.4986 19.7278 10.8389 19.1208 10.5653 18.1542C10.5139 18.0236 10.3167 18.0236 10.2653 18.1542C9.99167 19.1222 9.33194 19.7278 8.43333 19.9917C8.30139 20.0264 8.29305 20.2639 8.43333 20.2903C9.34861 20.4306 10.0181 21.0111 10.2653 22.1194C10.2944 22.2556 10.5347 22.2556 10.5653 22.1194C10.8125 21.0111 11.4806 20.4306 12.3972 20.2903C12.5389 20.2653 12.5292 20.0278 12.3972 19.9917Z" fill="white"/>
<path d="M27.0833 45.1389C26.6792 45.1389 26.3389 44.8736 26.2556 44.4917C26.0833 43.7153 25.6833 43.3056 24.9972 43.1986C24.5986 43.1264 24.3222 42.8014 24.3069 42.4056C24.2903 41.9986 24.5444 41.6444 24.9236 41.5431C25.6125 41.3403 26.0694 40.8819 26.2653 40.1875C26.4153 39.7944 26.7278 39.5819 27.0833 39.5819C27.4389 39.5819 27.7514 39.7931 27.8792 40.1222C28.0972 40.8819 28.5542 41.3403 29.2597 41.5472C29.6222 41.6431 29.8764 41.9972 29.8597 42.4042C29.8444 42.8 29.5681 43.1264 29.1889 43.1944C28.4833 43.3028 28.0833 43.7139 27.9111 44.4917C27.8278 44.8736 27.4875 45.1389 27.0833 45.1389Z" fill="#3F51B5"/>
<path d="M29.0639 42.2139C28.1653 41.95 27.5056 41.3431 27.2319 40.3764C27.1806 40.2458 26.9833 40.2458 26.9319 40.3764C26.6583 41.3444 25.9986 41.95 25.1 42.2139C24.9681 42.2486 24.9597 42.4861 25.1 42.5125C26.0153 42.6528 26.6847 43.2333 26.9319 44.3417C26.9611 44.4778 27.2014 44.4778 27.2319 44.3417C27.4792 43.2333 28.1472 42.6528 29.0639 42.5125C29.2056 42.4875 29.1958 42.25 29.0639 42.2139Z" fill="white"/>
<path d="M10.4167 47.9167C10.0125 47.9167 9.67222 47.6514 9.58889 47.2694C9.41667 46.4931 9.01667 46.0833 8.33055 45.9764C7.93194 45.9042 7.65555 45.5792 7.64028 45.1833C7.62361 44.7764 7.87778 44.4222 8.25694 44.3208C8.94583 44.1181 9.40278 43.6597 9.59861 42.9653C9.74861 42.5722 10.0611 42.3597 10.4167 42.3597C10.7722 42.3597 11.0847 42.5708 11.2125 42.9C11.4306 43.6597 11.8875 44.1181 12.5931 44.325C12.9556 44.4208 13.2097 44.775 13.1931 45.1819C13.1778 45.5778 12.9014 45.9042 12.5222 45.9722C11.8167 46.0806 11.4167 46.4917 11.2444 47.2694C11.1611 47.6514 10.8208 47.9167 10.4167 47.9167Z" fill="#3F51B5"/>
<path d="M12.3972 44.9917C11.4986 44.7278 10.8389 44.1208 10.5653 43.1542C10.5139 43.0236 10.3167 43.0236 10.2653 43.1542C9.99167 44.1222 9.33194 44.7278 8.43333 44.9917C8.30139 45.0264 8.29305 45.2639 8.43333 45.2903C9.34861 45.4306 10.0181 46.0111 10.2653 47.1194C10.2944 47.2556 10.5347 47.2556 10.5653 47.1194C10.8125 46.0111 11.4806 45.4306 12.3972 45.2903C12.5389 45.2653 12.5292 45.0278 12.3972 44.9917Z" fill="white"/>
<path d="M4.16666 38.1944C3.84027 38.1944 3.45694 37.8986 3.3875 37.5792C3.27083 37.05 2.99444 36.9389 2.74027 36.9C2.41111 36.85 2.09444 36.4806 2.08333 36.1472C2.06944 35.7681 2.31111 35.4361 2.66944 35.3431C3.04444 35.2319 3.28889 34.9875 3.39722 34.6C3.48333 34.3 3.85555 34.0278 4.16666 34.0278C4.5 34.0278 4.79305 34.2278 4.91389 34.5347C5.04444 34.9861 5.28889 35.2306 5.68472 35.3472C5.98889 35.4361 6.2625 35.8306 6.25 36.1458C6.2375 36.5208 5.97639 36.8278 5.61527 36.8944C5.33889 36.9375 5.06388 37.0486 4.94583 37.5819C4.87361 37.9 4.49166 38.1944 4.16666 38.1944Z" fill="#3F51B5"/>
<path d="M5.4875 36.0139C4.88889 35.8375 4.44861 35.4333 4.26666 34.7889C4.23333 34.7014 4.10139 34.7014 4.06666 34.7889C3.88472 35.4333 3.44444 35.8389 2.84583 36.0139C2.75833 36.0375 2.75139 36.1958 2.84583 36.2139C3.45555 36.3083 3.90278 36.6944 4.06666 37.4333C4.08611 37.5236 4.24722 37.5236 4.26666 37.4333C4.43055 36.6944 4.87778 36.3069 5.4875 36.2139C5.58055 36.1944 5.575 36.0361 5.4875 36.0139Z" fill="white"/>
<path d="M4.86111 44.0972C4.53333 44.0972 4.17499 43.8181 4.10694 43.4972C4.03888 43.1903 3.89999 43.1431 3.76388 43.1222C3.43472 43.0722 3.13611 42.725 3.12499 42.3931C3.11249 42.0278 3.34444 41.7097 3.69027 41.6153C3.91527 41.55 4.05138 41.4125 4.11805 41.1792C4.20277 40.8806 4.54999 40.625 4.86111 40.625C5.18472 40.625 5.46805 40.8194 5.58333 41.1181C5.67083 41.4139 5.80694 41.5514 6.04722 41.6208C6.35138 41.7083 6.60833 42.075 6.59722 42.3931C6.58472 42.7528 6.33333 43.0514 5.98472 43.1181C5.82222 43.1431 5.68333 43.1903 5.61388 43.5014C5.54305 43.8208 5.18749 44.0972 4.86111 44.0972Z" fill="#3F51B5"/>
<path d="M5.85138 42.2875C5.40277 42.1556 5.07222 41.8528 4.93611 41.3681C4.91111 41.3028 4.8125 41.3028 4.78611 41.3681C4.65 41.8514 4.31944 42.1556 3.87083 42.2875C3.80416 42.3056 3.79999 42.4236 3.87083 42.4375C4.32916 42.5083 4.66388 42.7986 4.78611 43.3528C4.80138 43.4208 4.92083 43.4208 4.93611 43.3528C5.05972 42.7986 5.39444 42.5083 5.85138 42.4375C5.92222 42.4236 5.91805 42.3056 5.85138 42.2875Z" fill="white"/>
<path d="M31.25 39.9306C30.9222 39.9306 30.5639 39.6514 30.4958 39.3306C30.4278 39.0236 30.2889 38.9764 30.1528 38.9556C29.8236 38.9056 29.525 38.5583 29.5139 38.2264C29.5014 37.8611 29.7333 37.5431 30.0792 37.4486C30.3042 37.3833 30.4403 37.2458 30.5069 37.0125C30.5917 36.7125 30.9389 36.4583 31.25 36.4583C31.5736 36.4583 31.8569 36.6528 31.9722 36.9514C32.0597 37.2472 32.1958 37.3847 32.4361 37.4542C32.7403 37.5417 32.9972 37.9083 32.9861 38.2264C32.9736 38.5861 32.7222 38.8847 32.3736 38.9514C32.2111 38.9764 32.0722 39.0236 32.0028 39.3347C31.9319 39.6542 31.5764 39.9306 31.25 39.9306Z" fill="#3F51B5"/>
<path d="M32.2403 38.1208C31.7917 37.9889 31.4611 37.6861 31.325 37.2014C31.3 37.1361 31.2014 37.1361 31.175 37.2014C31.0389 37.6847 30.7083 37.9889 30.2597 38.1208C30.1931 38.1389 30.1889 38.2569 30.2597 38.2708C30.7181 38.3417 31.0528 38.6319 31.175 39.1861C31.1903 39.2542 31.3097 39.2542 31.325 39.1861C31.4486 38.6319 31.7833 38.3417 32.2403 38.2708C32.3111 38.2569 32.3069 38.1389 32.2403 38.1208Z" fill="white"/>
<path d="M18.8847 49.3056L18.6667 48.6903C18.55 48.1611 18.2736 48.05 18.0194 48.0111L17.4514 47.925L17.3611 47.2569C17.3472 46.8778 17.5889 46.5458 17.9472 46.4528C18.3222 46.3417 18.5667 46.0972 18.675 45.7097L18.8181 45.2042L19.4444 45.1389C19.7778 45.1389 20.0708 45.3389 20.1917 45.6458C20.3222 46.0972 20.5667 46.3417 20.9625 46.4583L21.4792 46.6097L21.5278 47.2569C21.5153 47.6319 21.2542 47.9389 20.8931 48.0056C20.6167 48.0486 20.3417 48.1597 20.2236 48.6931L20.1028 49.2375L19.4444 49.3056H18.8847Z" fill="#3F51B5"/>
<path d="M20.7653 47.125C20.1667 46.9486 19.7264 46.5444 19.5444 45.9C19.5111 45.8125 19.3792 45.8125 19.3444 45.9C19.1625 46.5444 18.7222 46.95 18.1236 47.125C18.0361 47.1486 18.0292 47.3069 18.1236 47.325C18.7333 47.4194 19.1806 47.8056 19.3444 48.5444C19.3639 48.6347 19.525 48.6347 19.5444 48.5444C19.7083 47.8056 20.1556 47.4181 20.7653 47.325C20.8583 47.3056 20.8528 47.1472 20.7653 47.125Z" fill="white"/>
</svg>

<svg xmlns="http://www.w3.org/2000/svg" width="50" height="50" fill="none" viewBox="0 0 50 50"><path fill="#4caf50" d="M38.889 50H11.11C4.975 50 0 45.025 0 38.889V11.11C0 4.975 4.975 0 11.111 0H38.89C45.025 0 50 4.975 50 11.111V38.89C50 45.025 45.025 50 38.889 50"/><path fill="#1a237e" d="M38.75 36.792 25.542 50h-14.43C4.971 50 0 45.028 0 38.889v-14.43L13.208 11.25l5.903 7.861L7.32 30.89 19.111 42.68 30.89 30.889z"/><path fill="#fff" d="M18.956 43.517a3.05 3.05 0 0 1-1.892-.655c-1.378-1.081-3.414-2.765-5.288-4.638-1.882-1.882-3.56-3.916-4.64-5.29a3.07 3.07 0 0 1 .25-4.07l9.757-9.757-4.085-4.085a2.72 2.72 0 0 1-.672-2.755 2.75 2.75 0 0 1 2.167-1.88c6.675-1.13 14.368-1.623 23.507-1.533a3.136 3.136 0 0 1 3.084 3.085c.1 9.15-.404 16.839-1.533 23.507a2.75 2.75 0 0 1-1.876 2.166 2.71 2.71 0 0 1-2.759-.67l-4.084-4.085-9.759 9.758a3.07 3.07 0 0 1-2.177.902M13.74 36.26c1.777 1.775 3.721 3.383 5.04 4.42.116.09.282.077.39-.03l11.722-11.722 6.048 6.048c1.035-6.498 1.524-14.026 1.427-23.007a.345.345 0 0 0-.336-.336c-8.984-.093-16.505.39-23.014 1.495l6.054 5.98L9.349 30.83a.294.294 0 0 0-.03.39c.846 1.077 2.544 3.163 4.421 5.04"/><path fill="#3f51b5" d="M5.556 28.472a.88.88 0 0 1-.878-.682c-.25-1.123-.863-1.746-1.87-1.9a.88.88 0 0 1-.725-.843.89.89 0 0 1 .654-.912c1.003-.296 1.666-.96 1.95-1.968.157-.413.49-.64.869-.64s.71.227.847.576c.305 1.07.968 1.734 1.99 2.036.38.099.65.475.635.907a.87.87 0 0 1-.702.839c-1.03.158-1.641.78-1.891 1.907-.09.4-.45.68-.88.68"/><path fill="#fff" d="M8.197 24.804C7 24.453 6.12 23.644 5.756 22.353c-.069-.175-.331-.175-.4 0-.363 1.29-1.243 2.098-2.44 2.451-.177.047-.188.364 0 .399 1.22.187 2.112.96 2.44 2.439.04.18.36.18.4 0 .329-1.478 1.22-2.252 2.441-2.44.188-.034.177-.35 0-.398"/><path fill="#3f51b5" d="M10.417 22.917a.83.83 0 0 1-.828-.648c-.172-.776-.572-1.186-1.258-1.293a.83.83 0 0 1-.69-.793.844.844 0 0 1 .616-.862c.689-.203 1.146-.661 1.342-1.356.15-.393.462-.605.818-.605s.668.21.796.54c.218.76.675 1.218 1.38 1.425.363.096.617.45.6.857a.82.82 0 0 1-.67.79c-.706.109-1.106.52-1.279 1.297a.83.83 0 0 1-.827.648"/><path fill="#fff" d="M12.397 19.992c-.898-.264-1.558-.871-1.832-1.838-.051-.13-.248-.13-.3 0-.273.968-.933 1.574-1.832 1.838-.132.034-.14.272 0 .298.916.14 1.585.721 1.832 1.83.03.136.27.136.3 0 .248-1.109.916-1.69 1.832-1.83.142-.025.132-.262 0-.298"/><path fill="#3f51b5" d="M27.083 45.139a.83.83 0 0 1-.827-.647c-.173-.777-.573-1.186-1.259-1.293a.83.83 0 0 1-.69-.793.84.84 0 0 1 .617-.863c.689-.203 1.145-.661 1.341-1.355.15-.394.463-.606.818-.606.356 0 .668.211.796.54.218.76.675 1.218 1.38 1.425.363.096.617.45.6.857a.82.82 0 0 1-.67.79c-.706.109-1.106.52-1.278 1.298a.83.83 0 0 1-.828.647"/><path fill="#fff" d="M29.064 42.214c-.899-.264-1.558-.87-1.832-1.838-.051-.13-.249-.13-.3 0-.274.968-.933 1.574-1.832 1.838-.132.035-.14.272 0 .299.915.14 1.585.72 1.832 1.829.03.136.27.136.3 0 .247-1.109.915-1.69 1.832-1.83.142-.025.132-.262 0-.298"/><path fill="#3f51b5" d="M10.417 47.917a.83.83 0 0 1-.828-.648c-.172-.776-.572-1.186-1.258-1.293a.83.83 0 0 1-.69-.793.844.844 0 0 1 .616-.862c.689-.203 1.146-.661 1.342-1.356.15-.393.462-.605.818-.605s.668.21.796.54c.218.76.675 1.218 1.38 1.425.363.096.617.45.6.857a.82.82 0 0 1-.67.79c-.706.109-1.106.52-1.279 1.297a.83.83 0 0 1-.827.648"/><path fill="#fff" d="M12.397 44.992c-.898-.264-1.558-.871-1.832-1.838-.051-.13-.248-.13-.3 0-.273.968-.933 1.574-1.832 1.838-.132.034-.14.272 0 .298.916.14 1.585.721 1.832 1.83.03.136.27.136.3 0 .248-1.109.916-1.69 1.832-1.83.142-.025.132-.262 0-.298"/><path fill="#3f51b5" d="M4.167 38.194c-.327 0-.71-.295-.78-.615-.116-.529-.393-.64-.647-.679-.329-.05-.646-.42-.657-.753a.79.79 0 0 1 .586-.804q.564-.164.728-.743c.086-.3.459-.572.77-.572.333 0 .626.2.747.507.13.451.375.696.77.812.305.09.579.484.566.799a.78.78 0 0 1-.635.748c-.276.044-.551.155-.67.688-.071.318-.453.612-.778.612"/><path fill="#fff" d="M5.488 36.014c-.6-.177-1.04-.58-1.221-1.225-.034-.088-.166-.088-.2 0-.182.644-.623 1.05-1.221 1.225-.088.023-.095.182 0 .2.61.094 1.057.48 1.22 1.22.02.09.181.09.2 0 .165-.74.612-1.127 1.221-1.22.094-.02.088-.178 0-.2"/><path fill="#3f51b5" d="M4.861 44.097c-.328 0-.686-.279-.754-.6-.068-.307-.207-.354-.343-.375-.33-.05-.628-.397-.639-.729a.77.77 0 0 1 .565-.778.58.58 0 0 0 .428-.436c.085-.298.432-.554.743-.554.324 0 .607.194.722.493.088.296.224.433.464.503.304.087.561.454.55.772a.76.76 0 0 1-.612.725c-.163.025-.302.072-.371.383-.07.32-.427.596-.753.596"/><path fill="#fff" d="M5.851 42.288a1.28 1.28 0 0 1-.915-.92c-.025-.065-.123-.065-.15 0a1.28 1.28 0 0 1-.915.92c-.067.018-.071.136 0 .15.458.07.793.36.915.915.015.068.135.068.15 0 .124-.554.458-.845.915-.916.071-.013.067-.131 0-.15"/><path fill="#3f51b5" d="M31.25 39.93c-.328 0-.686-.279-.754-.6-.068-.306-.207-.354-.343-.374-.33-.05-.628-.398-.64-.73a.77.77 0 0 1 .566-.777.58.58 0 0 0 .428-.436c.085-.3.432-.555.743-.555.324 0 .607.195.722.493.088.296.224.434.464.503.304.088.561.454.55.772a.76.76 0 0 1-.612.725c-.163.025-.302.073-.371.384-.071.32-.427.596-.753.596"/><path fill="#fff" d="M32.24 38.12a1.28 1.28 0 0 1-.915-.919c-.025-.065-.124-.065-.15 0a1.28 1.28 0 0 1-.915.92c-.067.018-.071.136 0 .15.458.07.793.36.915.915.015.068.135.068.15 0 .124-.554.458-.844.915-.915.071-.014.067-.132 0-.15"/><path fill="#3f51b5" d="m18.885 49.306-.218-.616c-.117-.529-.393-.64-.648-.679l-.568-.086-.09-.668a.79.79 0 0 1 .586-.804q.564-.164.728-.743l.143-.506.626-.065c.334 0 .627.2.748.507.13.451.375.696.77.812l.517.152.049.647a.78.78 0 0 1-.635.749c-.276.043-.551.154-.67.687l-.12.544-.659.069z"/><path fill="#fff" d="M20.765 47.125c-.598-.176-1.039-.58-1.22-1.225-.034-.087-.166-.087-.2 0-.182.644-.623 1.05-1.221 1.225-.088.024-.095.182 0 .2.61.094 1.057.48 1.22 1.22.02.09.181.09.2 0 .164-.74.612-1.127 1.221-1.22.093-.02.088-.178 0-.2"/></svg>
